!!!OTL: WEIL MICH DAS GLUECK GEFUEHRT
!!!ARE: Europa, Mitteleuropa, Deutschland, Nauen, Buschow
!!!SCT: E0973C
!!!YEM: Copyright 1995, estate of Helmut Schaffrath.
**kern
*ICvox
*Ivox
*M3/8
*k[f#c#g#]
*A:
=1
{8e
8a
8a
=2
8a
16g#
16a
8b}
=3
{8e
8b
8b
=4
8b
16a
16b
8cc#}
=5
{8a
8cc#
8cc#
=6
8cc#
16b
16cc#
8dd}
=7
{8cc#
16b
16a
16g#
16a
=8
8b
8a
8r}
==
!!!AGN: Tanz - Lied, Reigen
!!!ONB: ESAC (Essen Associative Code) Database: ERK2
!!!AMT: simple triple
!!!AIN: vox
!!!EED: Helmut Schaffrath
!!!EEV: 1.0
*-
